X:1
T:Ruileadh Cailleach, Sheatadh Cailleach
C:Trad.
M:2/2
R:Reel
K:Amaj
AB | cee/e/e faec | ecec B2AB | cee/e/e faec | ecec A2AB |
     cee/e/e faec | ecec B2=g2 | a2gf dfeA | dBec A4
   |: a2gf dfeA | d2ef dfec | a2gf dfeA | dBec A4 :|
 
